static/images/stealthex-logo.svg

<svg height="100" viewBox="0 0 100 100" width="100" xmlns="http://www.w3.org/2000/svg"><g fill="none" fill-rule="evenodd"><path d="m0 0h100v100h-100z" fill="#fde937" fill-rule="nonzero"/><g transform="translate(18 34)"><path d="m63.1837867 14.9087289-11.0264889-14.23985779c-.2872889-.38215111-.8618667-.66887111-1.3411556-.66887111h-50.8161422v31.8139733h51.39072c.4792889 0 .8632889-.1911466 1.1505778-.57344l10.7377778-13.7514666c.4792888-.7645867.4807111-1.8157511-.0952889-2.5803378zm-39.1182223 11.2770844h-17.25809773v-20.73841774h16.87452443v5.25624884h-9.9713422v2.3893334h8.8207644v5.0651022h-8.8207644v2.6759111h10.3549155zm16.6826667 0-3.5470222-5.5429689-3.5484445 5.5429689h-7.9573333l7.4780445-10.4169244-7.2863289-10.22592001h7.8623289l3.5470222 5.25624891 3.4517333-5.25624891h7.5747556l-7.1907556 10.03477331 7.6700445 10.7036445h-8.0540445z" fill="#000" fill-rule="nonzero"/><path d="m6.77973333 26.1853867h17.25809777v-5.3518223h-10.3547733v-2.6760533h8.8207644v-5.0651022h-8.8207644v-2.3891911h9.9713422v-5.25639113h-16.87466667zm30.39303107-5.5429689 3.5484445 5.5429689v.0955733h8.0526222l-7.6700444-10.7037867 7.1907555-10.0347733h-7.5733333l-3.4517333 5.2563911-3.5484445-5.2563911h-7.8614755l7.2868977 10.22592-7.4786133 10.4170667h7.9579022z" fill="#fff"/></g></g></svg>

<?xml version="1.0" encoding="UTF-8"?>
<svg width="100px" height="100px" viewBox="0 0 100 100" version="1.1" xmlns="http://www.w3.org/2000/svg" xmlns:xlink="http://www.w3.org/1999/xlink">
    <!-- Generator: Sketch 63.1 (92452) - https://sketch.com -->
    <title>stealthex-logo</title>
    <desc>Created with Sketch.</desc>
    <g id="Page-1" stroke="none" stroke-width="1" fill="none" fill-rule="evenodd">
        <g id="stealthex-logo">
            <rect id="Rectangle" fill="#FDE937" fill-rule="nonzero" x="0" y="0" width="100" height="100"></rect>
            <g id="Group" transform="translate(18.000000, 34.000000)">
                <path d="M63.1837867,14.9087289 L52.1572978,0.668871111 C51.8700089,0.28672 51.2954311,-1.57898386e-14 50.8161422,-1.57898386e-14 L3.22112707e-13,-1.57898386e-14 L3.22112707e-13,31.8139733 L51.39072,31.8139733 C51.8700089,31.8139733 52.2540089,31.6228267 52.5412978,31.2405333 L63.2790756,17.4890667 C63.7583644,16.72448 63.7597867,15.6733156 63.1837867,14.9087289 Z M24.0655644,26.1858133 L6.80746667,26.1858133 L6.80746667,5.44739556 L23.6819911,5.44739556 L23.6819911,10.7036444 L13.7106489,10.7036444 L13.7106489,13.0929778 L22.5314133,13.0929778 L22.5314133,18.15808 L13.7106489,18.15808 L13.7106489,20.8339911 L24.0655644,20.8339911 L24.0655644,26.1858133 Z M40.7482311,26.1858133 L37.2012089,20.6428444 L33.6527644,26.1858133 L25.6954311,26.1858133 L33.1734756,15.7688889 L25.8871467,5.54296889 L33.7494756,5.54296889 L37.2964978,10.7992178 L40.7482311,5.54296889 L48.3229867,5.54296889 L41.1322311,15.5777422 L48.8022756,26.2813867 L40.7482311,26.2813867 L40.7482311,26.1858133 Z" id="Shape" fill="#000000" fill-rule="nonzero"></path>
                <path d="M6.77973333,26.1853867 L24.0378311,26.1853867 L24.0378311,20.8335644 L13.6830578,20.8335644 L13.6830578,18.1575111 L22.5038222,18.1575111 L22.5038222,13.0924089 L13.6830578,13.0924089 L13.6830578,10.7032178 L23.6544,10.7032178 L23.6544,5.44682667 L6.77973333,5.44682667 L6.77973333,26.1853867 Z M37.1727644,20.6424178 L40.7212089,26.1853867 L40.7212089,26.28096 L48.7738311,26.28096 L41.1037867,15.5771733 L48.2945422,5.5424 L40.7212089,5.5424 L37.2694756,10.7987911 L33.7210311,5.5424 L25.8595556,5.5424 L33.1464533,15.76832 L25.66784,26.1853867 L33.6257422,26.1853867 L37.1727644,20.6424178 Z" id="Shape" fill="#FFFFFF"></path>
            </g>
        </g>
    </g>
</svg>
